!!!OTL: Chashan sanyue haofengguang
!!!ARE: Asia, China,ÿJiangxi Yongxin
!! IV, 210
!!!SCT: C1793
!!!YEM: Copyright 1995, estate of Helmut Schaffrath.
**kern
*ICvox
*Ivox
!! Mixed meters:  2/4; 3/4
*M3/4
*k[]
*C:
{8cc
16a
16cc
4e
4e
=1
8cc
8g
8a
8cc
4a}
=2
{8cc
8ee
8ee
8a
4cc
=3
8a
8a
4g
4e}
=4
*M2/4
{8cc
8ee
8cc
8cc
=5
8a
8a
4cc}
=6
{8a
16a
16cc
8e
8g
=7
8a
8ee
4cc
=8
8a
8a
4g
8e
8r}
==
!!!AGN: Shange
!!!AMT: irregular
!!!AIN: vox
!!!EED: Helmut Schaffrath
!!!EEV: 1.0
*-
